X: 1
T:Cajun 2-step
R:Reel
O:USA
M:C
K:DMix
EFFF EFFF| EFF(A A)FED| DEE(E E)EDE| FABA FEDE|
EFFF EFFF| EFF(A A)FED| EFED A,2B,D|1\
D3(D D)A,B,D :|2(D4 D)DFA|:
c2cB cBA=F| ^FAF(D D)DFA| c2cB cBA=F|(^F4 F)DFA|
c2cB cBA=F| ^FAF(D D)A,B,D| E=FED A,2B,D| (D4 D)DFA:|
